projects/flag-game/flags/South Africa.svg

<svg viewBox="0 0 1000 667" xmlns="http://www.w3.org/2000/svg" xmlns:xlink="http://www.w3.org/1999/xlink"><clipPath id="a"><path d="m0 0h1000v666.71875h-1000zm0 0"/></clipPath><clipPath id="b"><path d="m0 0h1000v666.71875h-1000zm0 0"/></clipPath><clipPath id="c"><path d="m0 0h500v666.71875h-500zm0 0"/></clipPath><clipPath id="d"><path d="m0 0h1000v666.71875h-1000zm0 0"/></clipPath><g clip-path="url(#a)"><path d="m0 666.667969v-666.667969h1000v666.667969zm0 0" fill="#002395" fill-rule="evenodd"/></g><path d="m0 0v333.332031h1000v-333.332031zm0 0" fill="#de3831" fill-rule="evenodd"/><g clip-path="url(#b)"><path d="m0 0 500 333.332031-500 333.335938zm500 333.332031h500zm0 0" fill-rule="evenodd"/><path d="m0 0 500 333.332031-500 333.335938" fill="none" stroke="#fff" stroke-width="222.222222"/></g><path d="m500 333.332031h500" fill="none" stroke="#fff" stroke-width="222.222222"/><g clip-path="url(#c)"><path d="m0 0 500 333.332031-500 333.335938zm0 0" fill-rule="evenodd"/></g><g fill="none"><g clip-path="url(#d)"><path d="m0 0 500 333.332031-500 333.335938" stroke="#ffb612" stroke-width="222.222222"/><path d="m83.964844 0 500 333.332031-500 333.335938" stroke="#fff" stroke-linecap="square" stroke-width="130"/><path d="m0 0 500 333.332031-500 333.335938" stroke="#007a4d" stroke-width="133.333339"/></g><path d="m500 333.332031h500" stroke="#007a4d" stroke-width="133.333339"/></g></svg>

<?xml version="1.0" encoding="UTF-8"?>
<svg xmlns="http://www.w3.org/2000/svg" xmlns:xlink="http://www.w3.org/1999/xlink" viewBox="0 0 1000 667" version="1.1">
<defs>
<clipPath id="clip1">
  <path d="M 0 0 L 1000 0 L 1000 666.71875 L 0 666.71875 Z M 0 0 "/>
</clipPath>
<clipPath id="clip2">
  <path d="M 0 0 L 1000 0 L 1000 666.71875 L 0 666.71875 Z M 0 0 "/>
</clipPath>
<clipPath id="clip3">
  <path d="M 0 0 L 500 0 L 500 666.71875 L 0 666.71875 Z M 0 0 "/>
</clipPath>
<clipPath id="clip4">
  <path d="M 0 0 L 1000 0 L 1000 666.71875 L 0 666.71875 Z M 0 0 "/>
</clipPath>
</defs>
<g id="surface1095">
<g clip-path="url(#clip1)" clip-rule="nonzero">
<path style=" stroke:none;fill-rule:evenodd;fill:rgb(0%,13.725281%,58.430481%);fill-opacity:1;" d="M 0 666.667969 L 0 0 L 1000 0 L 1000 666.667969 Z M 0 666.667969 "/>
</g>
<path style=" stroke:none;fill-rule:evenodd;fill:rgb(87.057495%,21.960449%,19.215393%);fill-opacity:1;" d="M 0 0 L 0 333.332031 L 1000 333.332031 L 1000 0 Z M 0 0 "/>
<g clip-path="url(#clip2)" clip-rule="nonzero">
<path style=" stroke:none;fill-rule:evenodd;fill:rgb(0%,0%,0%);fill-opacity:1;" d="M 0 0 L 500 333.332031 L 0 666.667969 Z M 500 333.332031 L 1000 333.332031 Z M 500 333.332031 "/>
<path style="fill:none;stroke-width:222.222222;stroke-linecap:butt;stroke-linejoin:miter;stroke:rgb(99.998474%,99.998474%,99.998474%);stroke-opacity:1;stroke-miterlimit:4;" d="M 0 0 L 500 333.332031 L 0 666.667969 "/>
</g>
<path style="fill:none;stroke-width:222.222222;stroke-linecap:butt;stroke-linejoin:miter;stroke:rgb(99.998474%,99.998474%,99.998474%);stroke-opacity:1;stroke-miterlimit:4;" d="M 500 333.332031 L 1000 333.332031 "/>
<g clip-path="url(#clip3)" clip-rule="nonzero">
<path style=" stroke:none;fill-rule:evenodd;fill:rgb(0%,0%,0%);fill-opacity:1;" d="M 0 0 L 500 333.332031 L 0 666.667969 Z M 0 0 "/>
</g>
<g clip-path="url(#clip4)" clip-rule="nonzero">
<path style="fill:none;stroke-width:222.222222;stroke-linecap:butt;stroke-linejoin:miter;stroke:rgb(99.998474%,71.37146%,7.058716%);stroke-opacity:1;stroke-miterlimit:4;" d="M 0 0 L 500 333.332031 L 0 666.667969 "/>
<path style="fill:none;stroke-width:130;stroke-linecap:square;stroke-linejoin:miter;stroke:rgb(99.998474%,99.998474%,99.998474%);stroke-opacity:1;stroke-miterlimit:4;" d="M 83.964844 0 L 583.964844 333.332031 L 83.964844 666.667969 "/>
<path style="fill:none;stroke-width:133.333339;stroke-linecap:butt;stroke-linejoin:miter;stroke:rgb(0%,47.842407%,30.195618%);stroke-opacity:1;stroke-miterlimit:4;" d="M 0 0 L 500 333.332031 L 0 666.667969 "/>
</g>
<path style="fill:none;stroke-width:133.333339;stroke-linecap:butt;stroke-linejoin:miter;stroke:rgb(0%,47.842407%,30.195618%);stroke-opacity:1;stroke-miterlimit:4;" d="M 500 333.332031 L 1000 333.332031 "/>
</g>
</svg>
